src/assets/burger.svg

<svg width="68" height="54" viewBox="0 0 68 54" fill="none" xmlns="http://www.w3.org/2000/svg">
<path d="M35.9214 13.8859C35.9214 16.0151 35.0574 17.7431 33.9929 17.7431C32.9283 17.7431 32.0643 16.0151 32.0643 13.8859C32.0643 11.7568 32.9283 10.0288 33.9929 10.0288C35.0574 10.0288 35.9214 11.7568 35.9214 13.8859ZM47.4558 16.0151C46.3912 17.8573 44.7805 18.9218 43.8579 18.3911C42.9352 17.8573 43.0525 15.9287 44.1171 14.0865C45.1816 12.2413 46.7924 11.1767 47.715 11.7105C48.6376 12.2443 48.5204 14.1698 47.4558 16.0151ZM24.1278 18.3911C23.2052 18.9218 21.5976 17.8573 20.5299 16.0151C19.4653 14.1698 19.3481 12.2413 20.2707 11.7074C21.1964 11.1767 22.8072 12.2413 23.8717 14.0834C24.9363 15.9287 25.0505 17.8573 24.1278 18.3911Z" fill="#00AACB"/>
<path fill-rule="evenodd" clip-rule="evenodd" d="M6.99947 20.8285V28.0923C5.22234 28.5966 3.65823 29.6669 2.54448 31.1407C1.43072 32.6145 0.828125 34.4113 0.828125 36.2586C0.828125 38.1059 1.43072 39.9028 2.54448 41.3766C3.65823 42.8504 5.22234 43.9206 6.99947 44.425V45.5142C6.99947 47.7648 7.89349 49.9231 9.48487 51.5145C11.0762 53.1059 13.2346 53.9999 15.4852 53.9999H52.5137C54.7642 53.9999 56.9226 53.1059 58.514 51.5145C60.1054 49.9231 60.9994 47.7648 60.9994 45.5142V44.4219C62.7752 43.9166 64.338 42.8462 65.4507 41.3728C66.5633 39.8994 67.1653 38.1034 67.1653 36.2571C67.1653 34.4108 66.5633 32.6148 65.4507 31.1414C64.338 29.668 62.7752 28.5975 60.9994 28.0923V20.8285C60.9994 14.8237 57.7501 9.5657 52.8439 5.88445C47.9376 2.20628 41.2694 0 33.9994 0C26.7295 0 20.0613 2.20628 15.155 5.88445C10.2487 9.56262 6.99947 14.8237 6.99947 20.8285ZM11.628 20.8285C11.628 16.6073 13.9022 12.6113 17.9321 9.5873C21.9652 6.56639 27.6336 4.62856 33.9994 4.62856C40.3652 4.62856 46.0368 6.56639 50.0667 9.5873C54.0936 12.6113 56.3708 16.6073 56.3708 20.8285V21.6H11.628V20.8285ZM11.628 27.7714V26.2285H56.3708V27.7714H46.3423C45.7285 27.7714 45.1398 28.0152 44.7058 28.4492C44.2718 28.8832 44.028 29.4719 44.028 30.0857V33.1714C44.028 33.7852 43.7842 34.3738 43.3501 34.8078C42.9161 35.2418 42.3275 35.4857 41.7137 35.4857C41.0999 35.4857 40.5113 35.2418 40.0773 34.8078C39.6432 34.3738 39.3994 33.7852 39.3994 33.1714V30.0857C39.3994 29.4719 39.1556 28.8832 38.7216 28.4492C38.2876 28.0152 37.6989 27.7714 37.0851 27.7714H11.628ZM9.31375 32.4C8.29077 32.4 7.3097 32.8063 6.58634 33.5297C5.86299 34.253 5.45661 35.2341 5.45661 36.2571C5.45661 37.2801 5.86299 38.2611 6.58634 38.9845C7.3097 39.7079 8.29077 40.1142 9.31375 40.1142H58.6851C59.7081 40.1142 60.6892 39.7079 61.4125 38.9845C62.1359 38.2611 62.5422 37.2801 62.5422 36.2571C62.5422 35.2341 62.1359 34.253 61.4125 33.5297C60.6892 32.8063 59.7081 32.4 58.6851 32.4H48.6566V33.1714C48.6566 35.0127 47.9251 36.7787 46.623 38.0807C45.321 39.3828 43.5551 40.1142 41.7137 40.1142C39.8723 40.1142 38.1064 39.3828 36.8044 38.0807C35.5023 36.7787 34.7709 35.0127 34.7709 33.1714V32.4H9.31375ZM11.628 45.5142V44.7428H56.3708V45.5142C56.3708 47.6434 54.6428 49.3714 52.5137 49.3714H15.4852C13.356 49.3714 11.628 47.6434 11.628 45.5142Z" fill="#00AACB"/>
</svg>

<svg xmlns="http://www.w3.org/2000/svg" width="68" height="54" fill="none" viewBox="0 0 68 54"><path fill="#00aacb" d="M35.921 13.886c0 2.13-.864 3.857-1.928 3.857s-1.929-1.728-1.929-3.857.864-3.857 1.929-3.857 1.928 1.728 1.928 3.857m11.535 2.13c-1.065 1.841-2.675 2.906-3.598 2.375-.923-.534-.805-2.462.26-4.304 1.064-1.846 2.674-2.91 3.597-2.376.923.533.805 2.459-.26 4.304M24.128 18.39c-.923.53-2.53-.534-3.598-2.376-1.065-1.845-1.182-3.774-.26-4.308.926-.53 2.537.534 3.602 2.376 1.064 1.846 1.178 3.774.256 4.308"/><path fill="#00aacb" fill-rule="evenodd" d="M7 20.829v7.263a8.489 8.489 0 0 0 0 16.333v1.09A8.486 8.486 0 0 0 15.484 54h37.029a8.486 8.486 0 0 0 8.485-8.486v-1.092a8.49 8.49 0 0 0 0-16.33v-7.264c0-6.004-3.249-11.262-8.155-14.944C47.938 2.206 41.269 0 33.999 0S20.061 2.206 15.155 5.884s-8.156 8.94-8.156 14.944m4.628 0c0-4.222 2.274-8.218 6.304-11.242C21.965 6.567 27.634 4.63 34 4.63s12.038 1.937 16.068 4.958c4.027 3.024 6.304 7.02 6.304 11.241v.772H11.628zm0 6.942v-1.543H56.37v1.543H46.342a2.314 2.314 0 0 0-2.314 2.315v3.085a2.314 2.314 0 1 1-4.629 0v-3.085a2.314 2.314 0 0 0-2.314-2.315zM9.314 32.4a3.857 3.857 0 1 0 0 7.714h49.371a3.857 3.857 0 1 0 0-7.714H48.657v.771a6.943 6.943 0 0 1-13.886 0V32.4zm2.314 13.114v-.771h44.743v.771a3.86 3.86 0 0 1-3.857 3.857H15.485a3.86 3.86 0 0 1-3.857-3.857" clip-rule="evenodd"/></svg>
